!!!OTL: 1340. Die Reveille (Wecktrommel).
!!!ARE: Europa, Mitteleuropa, Deutschland
!!!SCT: E1340
!!!TXL: @@DE
!!!YEM: Copyright 1995, estate of Helmut Schaffrath.
**kern	**text
*ICvox	*
*M4/4	*
*met(c)	*
*k[f#]	*
*G:	*
!LO:TX:a:t=Mäßig	!
!LO:TX:a:t=Neuere Volksweiſe.	!
{4d	Des
=1	=1
8.g	Mor-
16g	-gens
8g	ʒwi-
8a	-ſchen
8b	drei
8b	.
8cc	und
8cc	.
=2	=2
2b/	vie-
4a}	-ren,
{8aL	da
8bJ	.
=3	=3
8.cc	müſſen
16cc	.
8cc	wir
8cc	Sol-
(8ccL	-da-
8eeJ	.
8dd)	-ten
8cc	mar-
=4	=4
2cc	-ſchie-
4b}	-ren
{4b	die
=5	=5
4a	Stra-
4dd	-ßen
4cc#	auf
4a	und
=6	=6
2dd	ab.
4r}	.
{8.ccn	Tra-
16b	-la-
=7	=7
4a	-li,
8.a	tral-
16b/	-la-
4cc	-li,
8.cc	tra-
16ee	-la-
=8	=8
2dd	-dei,
4r}	.
{8gL	mein
8aJ	.
=9	=9
4b/	Schätʒ-
4b/	-chen
4a	ſieht
4a	her-
=10	=10
2g	-ab.
4r}	.
==	==
!!!AGN: Staende -, Soldaten -, Kriegs - Lied
!!!ONB: ESAC (Essen Associative Code) Database: ERK3
!!!AMT: simple quadruple
!!!AIN: vox
!!!EED: Helmut Schaffrath
!!!EEV: 1.0
!!!GTL: Staendelieder (Berufslieder). 1. Soldaten- und Kriegslieder. Soldatenlieder seit dem 30jaehr. Kriege.
!!!URL-scan: https://rosdok.uni-rostock.de/mcrviewer/recordIdentifier/rosdok_ppn745177999/iview2/phys_0223.iview2?x=-128.77276441889285&y=70.43648356641643&scale=0.5870222003877487&rotation=0&layout=singlePageLayout
!!!ENC: Anna Maria Matuszewska
!!!EEV: 2024/12/27
*-	*-
